src/assets/icons/person2.svg

<?xml version="1.0" encoding="UTF-8"?>
<svg fill="none" viewBox="0 0 120 120" xmlns="http://www.w3.org/2000/svg">
<g clip-path="url(#a)">
<path d="m120 60c0-33.132-26.868-60-60-60s-60 26.868-60 60 26.868 60 60 60 60-26.868 60-60z" fill="#E5AA17"/>
<path d="m60 120c16.977 0 32.31-7.062 43.216-18.38-0.677-3.6514-1.354-6.9888-2.007-9.0444-2.0554-6.6022-19.637-11.923-41.306-11.923s-39.057 5.3204-41.112 11.923c-0.6288 2.0556-1.3301 5.3688-2.0072 9.0444 10.907 11.318 26.239 18.38 43.216 18.38z" fill="#E2A379"/>
<path d="m101.21 92.576c-1.6201-5.1754-12.793-9.5768-28.005-11.221l-13.204 22.128-13.228-22.176c-15.236 1.6445-26.384 6.046-28.005 11.246-0.6288 2.0556-1.3302 5.3688-2.0073 9.0446 10.907 11.342 26.239 18.38 43.216 18.38 16.977 0 32.31-7.062 43.216-18.38-0.628-3.6516-1.33-6.989-1.983-9.0204z" fill="#9AE8F4"/>
<path d="m49.166 104.86h-15.236v2.539h15.236v-2.539z" fill="#D2FAFC"/>
<path d="m51.947 75.453c-8.4402 2.0799-14.462 7.3036-14.462 13.398v20.629h1.2092v-20.629c0-5.4898 5.4897-10.206 13.228-12.164 0.0484-0.3869 0.0484-0.798 0.0242-1.2334z" fill="#3F3F3F"/>
<path d="m68.053 75.453c0 0.4354 0 0.8465 0.0242 1.2334 7.763 1.9589 13.228 6.6747 13.228 12.164v3.7968h1.2092v-3.7726c0-6.1185-6.0217-11.342-14.462-13.422z" fill="#3F3F3F"/>
<path d="m38.114 111.42c2.2306 0 4.0387-1.808 4.0387-4.039 0-2.23-1.8081-4.039-4.0387-4.039-2.2305 0-4.0386 1.809-4.0386 4.039 0 2.231 1.8081 4.039 4.0386 4.039z" fill="#5E5E5E"/>
<path d="m38.114 110.91c1.95 0 3.5309-1.581 3.5309-3.531s-1.5809-3.531-3.5309-3.531-3.5308 1.581-3.5308 3.531 1.5808 3.531 3.5308 3.531z" fill="#828282"/>
<path d="m38.114 109.87c1.3757 0 2.4909-1.115 2.4909-2.491s-1.1152-2.491-2.4909-2.491-2.4909 1.115-2.4909 2.491 1.1152 2.491 2.4909 2.491z" fill="#5E5E5E"/>
<path d="m38.114 109.17c0.9884 0 1.7896-0.802 1.7896-1.79s-0.8012-1.79-1.7896-1.79-1.7896 0.802-1.7896 1.79 0.8012 1.79 1.7896 1.79z" fill="#828282"/>
<path d="m84.498 111.08c-1.4027 0-3.2648-0.024-4.861-0.87-2.0072-1.065-3.0471-3.169-3.0471-6.216v-5.2234h0.9673v5.2234c0 2.709 0.8223 4.474 2.5152 5.369 1.451 0.774 3.2406 0.774 4.5707 0.774h0.1451v0.967h-0.1451c-0.0484-0.024-0.0967-0.024-0.1451-0.024z" fill="#69696B"/>
<path d="m85.828 110.59c0 0.556-0.4595 1.015-1.0157 1.015s-1.0157-0.459-1.0157-1.015c0-0.557 0.4595-1.016 1.0157-1.016 0.532-0.024 1.0157 0.435 1.0157 1.016z" fill="#69696B"/>
<path d="m79.274 111.05h-0.1451-0.1451v-0.967h0.1451c1.3059 0 3.1197 0 4.5707-0.774 1.6929-0.895 2.5151-2.66 2.5151-5.369v-5.2237h0.9674v5.2237c0 3.071-1.0158 5.151-3.0472 6.215-1.5961 0.871-3.4583 0.895-4.8609 0.895z" fill="#8D8D8E"/>
<path d="m77.968 110.57c0 0.557 0.4595 1.016 1.0157 1.016 0.5563 0 1.0157-0.459 1.0157-1.016 0-0.556-0.4594-1.015-1.0157-1.015-0.5562-0.025-1.0157 0.435-1.0157 1.015z" fill="#8D8D8E"/>
<path d="m86.699 99.347c-0.3386 0-0.6046-0.266-0.6046-0.6046v-1.5961c0-2.3216-1.8864-4.208-4.208-4.208-2.3217 0-4.208 1.8864-4.208 4.208v1.5961c0 0.3386-0.266 0.6046-0.6046 0.6046s-0.6046-0.266-0.6046-0.6046v-1.5961c0-2.9746 2.4184-5.4172 5.4172-5.4172s5.4172 2.4184 5.4172 5.4172v1.5961c0 0.3144-0.2661 0.6046-0.6046 0.6046z" fill="#3F3F3F"/>
<path d="m69.408 68.222h-18.815c2.9263 8.8513 0.2419 12.89 0.2419 12.89h18.331s-2.6844-4.0387 0.2418-12.89z" fill="#E2A379"/>
<path d="m81.354 42.37c0-22.346-9.5526-27.473-21.354-27.473-11.778 0-21.354 5.127-21.354 27.473 0 7.5695 1.4993 13.495 3.7484 18.065 4.9335 10.06 13.47 13.567 17.606 13.567 4.1355 0 12.672-3.5066 17.606-13.567 2.2491-4.5707 3.7485-10.496 3.7485-18.065z" fill="#F4B382"/>
<path d="m65.973 63.168c0 0.5804-2.6602 2.1281-5.9734 2.1281s-5.9734-1.5719-5.9734-2.1281c0-0.3628 1.8863-1.3543 3.1681-1.5478 0.7981-0.1209 2.8053 0.653 2.8053 0.653s1.9831-0.7497 2.757-0.653c1.3059 0.1693 3.2164 1.5478 3.2164 1.5478z" fill="#E5A173"/>
<path d="m65.973 63.168c0 0.5804-2.6602 2.7811-5.9734 2.7811s-5.9734-2.2007-5.9734-2.7811c0 0 2.4184 0.2902 5.9734 0.2902s5.9734-0.2902 5.9734-0.2902z" fill="#D89364"/>
<path d="m41.209 57.727c-2.0314 0.3386-3.4824 0.0242-4.6191-6.6989-1.1366-6.7231 0.4111-7.6179 2.4426-7.9564l2.1765 14.655z" fill="#F4B382"/>
<path d="m78.815 57.727c2.0314 0.3386 3.4582 0.0242 4.6191-6.6989 1.1608-6.7231-0.4112-7.6179-2.4426-7.9564l-2.1765 14.655z" fill="#F4B382"/>
<path d="m81.354 42.37c0-22.346-7.3277-28.077-21.354-28.077s-21.354 5.7316-21.354 28.077c0 0 3.9419-8.2467 6.844-12.842 2.902-4.5949 9.1898-4.4256 9.1898-4.4256h11.85s6.5296 0.0725 8.3434 4.4256l6.4812 12.842z" fill="#141414"/>
<path d="m40.024 34.051c-1.0157 2.636-1.3543 5.9008-1.3543 9.0689 0 0 2.1282-0.4595 2.1282 0.6288l0.6771 6.6747 0.9432-0.4595c-0.0484-5.5623 1.185-20.194 1.185-20.194l-3.5792 4.2806z" fill="#141414"/>
<path d="m80 34.051c1.0157 2.636 1.3543 5.9008 1.3543 9.0689 0 0-2.1282-0.4595-2.1282 0.6288l-0.6771 6.6747-0.9432-0.4595c0.0484-5.5623-1.185-19.758-1.185-19.758l3.5792 3.8452z" fill="#141414"/>
</g>
<defs>
<clipPath id="a">
<rect width="120" height="120" fill="#fff"/>
</clipPath>
</defs>
</svg>

<svg width="120" height="120" viewBox="0 0 120 120" fill="none" xmlns="http://www.w3.org/2000/svg">
<g clip-path="url(#clip0_2_75)">
<path d="M120 60C120 26.8682 93.1318 0 60 0C26.8682 0 0 26.8682 0 60C0 93.1318 26.8682 120 60 120C93.1318 120 120 93.1318 120 60Z" fill="#E5AA17"/>
<path d="M60 120C76.977 120 92.3096 112.938 103.216 101.62C102.539 97.9686 101.862 94.6312 101.209 92.5756C99.1536 85.9734 81.572 80.653 59.9033 80.653C38.2346 80.653 20.8464 85.9734 18.7908 92.5756C18.162 94.6312 17.4607 97.9444 16.7836 101.62C27.6905 112.938 43.023 120 60 120Z" fill="#E2A379"/>
<path d="M101.209 92.5756C99.5889 87.4002 88.416 82.9988 73.2044 81.3543L60 103.482L46.7715 81.3059C31.5357 82.9504 20.387 87.3519 18.7667 92.5514C18.1379 94.607 17.4365 97.9202 16.7594 101.596C27.6663 112.938 42.9988 119.976 59.9758 119.976C76.9529 119.976 92.2854 112.914 103.192 101.596C102.564 97.9444 101.862 94.607 101.209 92.5756Z" fill="#9AE8F4"/>
<path d="M49.1656 104.861H33.9298V107.4H49.1656V104.861Z" fill="#D2FAFC"/>
<path d="M51.9468 75.4534C43.5066 77.5333 37.4849 82.757 37.4849 88.8513V109.48H38.6941V88.8513C38.6941 83.3615 44.1838 78.6457 51.9226 76.6868C51.971 76.2999 51.971 75.8888 51.9468 75.4534Z" fill="#3F3F3F"/>
<path d="M68.0532 75.4534C68.0532 75.8888 68.0532 76.2999 68.0774 76.6868C75.8404 78.6457 81.3059 83.3615 81.3059 88.8513V92.6481H82.5151V88.8755C82.5151 82.757 76.4934 77.5333 68.0532 75.4534Z" fill="#3F3F3F"/>
<path d="M38.1136 111.415C40.3442 111.415 42.1523 109.607 42.1523 107.376C42.1523 105.146 40.3442 103.337 38.1136 103.337C35.8831 103.337 34.075 105.146 34.075 107.376C34.075 109.607 35.8831 111.415 38.1136 111.415Z" fill="#5E5E5E"/>
<path d="M38.1137 110.907C40.0637 110.907 41.6446 109.326 41.6446 107.376C41.6446 105.426 40.0637 103.845 38.1137 103.845C36.1637 103.845 34.5829 105.426 34.5829 107.376C34.5829 109.326 36.1637 110.907 38.1137 110.907Z" fill="#828282"/>
<path d="M38.1136 109.867C39.4893 109.867 40.6045 108.752 40.6045 107.376C40.6045 106 39.4893 104.885 38.1136 104.885C36.7379 104.885 35.6227 106 35.6227 107.376C35.6227 108.752 36.7379 109.867 38.1136 109.867Z" fill="#5E5E5E"/>
<path d="M38.1137 109.166C39.1021 109.166 39.9033 108.364 39.9033 107.376C39.9033 106.388 39.1021 105.586 38.1137 105.586C37.1253 105.586 36.3241 106.388 36.3241 107.376C36.3241 108.364 37.1253 109.166 38.1137 109.166Z" fill="#828282"/>
<path d="M84.4982 111.076C83.0955 111.076 81.2334 111.052 79.6372 110.206C77.63 109.141 76.5901 107.037 76.5901 103.99V98.7666H77.5574V103.99C77.5574 106.699 78.3797 108.464 80.0726 109.359C81.5236 110.133 83.3132 110.133 84.6433 110.133H84.7884V111.1H84.6433C84.5949 111.076 84.5466 111.076 84.4982 111.076Z" fill="#69696B"/>
<path d="M85.8283 110.593C85.8283 111.149 85.3688 111.608 84.8126 111.608C84.2564 111.608 83.7969 111.149 83.7969 110.593C83.7969 110.036 84.2564 109.577 84.8126 109.577C85.3446 109.553 85.8283 110.012 85.8283 110.593Z" fill="#69696B"/>
<path d="M79.2745 111.052C79.2261 111.052 79.1777 111.052 79.1294 111.052H78.9843V110.085H79.1294C80.4353 110.085 82.2491 110.085 83.7001 109.311C85.393 108.416 86.2152 106.651 86.2152 103.942V98.7183H87.1826V103.942C87.1826 107.013 86.1668 109.093 84.1354 110.157C82.5393 111.028 80.6771 111.052 79.2745 111.052Z" fill="#8D8D8E"/>
<path d="M77.9685 110.568C77.9685 111.125 78.428 111.584 78.9842 111.584C79.5405 111.584 79.9999 111.125 79.9999 110.568C79.9999 110.012 79.5405 109.553 78.9842 109.553C78.428 109.528 77.9685 109.988 77.9685 110.568Z" fill="#8D8D8E"/>
<path d="M86.6989 99.347C86.3603 99.347 86.0943 99.081 86.0943 98.7424V97.1463C86.0943 94.8247 84.2079 92.9383 81.8863 92.9383C79.5646 92.9383 77.6783 94.8247 77.6783 97.1463V98.7424C77.6783 99.081 77.4123 99.347 77.0737 99.347C76.7351 99.347 76.4691 99.081 76.4691 98.7424V97.1463C76.4691 94.1717 78.8875 91.7291 81.8863 91.7291C84.8851 91.7291 87.3035 94.1475 87.3035 97.1463V98.7424C87.3035 99.0568 87.0374 99.347 86.6989 99.347Z" fill="#3F3F3F"/>
<path d="M69.4075 68.2225H50.5925C53.5188 77.0738 50.8344 81.1125 50.8344 81.1125H69.1657C69.1657 81.1125 66.4813 77.0738 69.4075 68.2225Z" fill="#E2A379"/>
<path d="M81.3543 42.37C81.3543 20.0242 71.8017 14.8972 60 14.8972C48.2225 14.8972 38.6458 20.0242 38.6458 42.37C38.6458 49.9395 40.1451 55.8646 42.3942 60.4353C47.3277 70.4958 55.8646 74.0024 60 74.0024C64.1355 74.0024 72.6723 70.4958 77.6058 60.4353C79.8549 55.8646 81.3543 49.9395 81.3543 42.37Z" fill="#F4B382"/>
<path d="M65.9734 63.1681C65.9734 63.7485 63.3132 65.2962 60 65.2962C56.6868 65.2962 54.0266 63.7243 54.0266 63.1681C54.0266 62.8053 55.9129 61.8138 57.1947 61.6203C57.9928 61.4994 60 62.2733 60 62.2733C60 62.2733 61.9831 61.5236 62.757 61.6203C64.0629 61.7896 65.9734 63.1681 65.9734 63.1681Z" fill="#E5A173"/>
<path d="M65.9734 63.1681C65.9734 63.7485 63.3132 65.9492 60 65.9492C56.6868 65.9492 54.0266 63.7485 54.0266 63.1681C54.0266 63.1681 56.445 63.4583 60 63.4583C63.555 63.4583 65.9734 63.1681 65.9734 63.1681Z" fill="#D89364"/>
<path d="M41.2092 57.7267C39.1778 58.0653 37.7268 57.7509 36.5901 51.0278C35.4535 44.3047 37.0012 43.4099 39.0327 43.0714L41.2092 57.7267Z" fill="#F4B382"/>
<path d="M78.8151 57.7267C80.8465 58.0653 82.2733 57.7509 83.4342 51.0278C84.595 44.3047 83.023 43.4099 80.9916 43.0714L78.8151 57.7267Z" fill="#F4B382"/>
<path d="M81.3543 42.37C81.3543 20.0242 74.0266 14.2926 60 14.2926C45.9734 14.2926 38.6458 20.0242 38.6458 42.37C38.6458 42.37 42.5877 34.1233 45.4898 29.5284C48.3918 24.9335 54.6796 25.1028 54.6796 25.1028H66.5297C66.5297 25.1028 73.0593 25.1753 74.8731 29.5284L81.3543 42.37Z" fill="#141414"/>
<path d="M40.0242 34.0508C39.0085 36.6868 38.6699 39.9516 38.6699 43.1197C38.6699 43.1197 40.7981 42.6602 40.7981 43.7485L41.4752 50.4232L42.4184 49.9637C42.37 44.4014 43.6034 29.7702 43.6034 29.7702L40.0242 34.0508Z" fill="#141414"/>
<path d="M80.0001 34.0508C81.0158 36.6868 81.3544 39.9516 81.3544 43.1197C81.3544 43.1197 79.2262 42.6602 79.2262 43.7485L78.5491 50.4232L77.6059 49.9637C77.6543 44.4014 76.4209 30.2056 76.4209 30.2056L80.0001 34.0508Z" fill="#141414"/>
</g>
<defs>
<clipPath id="clip0_2_75">
<rect width="120" height="120" fill="white"/>
</clipPath>
</defs>
</svg>
